!!!SOCIAL_FUNCTION:	songs connected with ceremonies
!!!PDT:	1929
!!!OTL: No_96_Great_White_Birds_Over_the_Ocean.krn
!!!REG: Southwest
!!!LANG: Non-Tone
!!!LING_GROUP: Uto-Aztecan
**kern
*staff1
=1-
*clefF4
*k[b-e-a-]
*M2/4
8.B-\L
16B-\Jk
8.f\L
16f\Jk
=2
8.f\L
16f\Jk
8e-\
16r
16g\
=3
8.g\L
16f\Jk
8.e-\L
16e-\Jk
=4
8.e-\L
(16e-\Jk
8.c\L)
16B-\Jk
=5||
*M3/4
(4..e-^\
16B-\)
8B-\
16r
16e-\
=6||
*M2/4
8.e-\L
(16e-\Jk
8.e-\L)
16c\Jk
=7
8.e-^\L
16B-\Jk
(8.B-\L
16A-\Jk)
=8||
*M3/4
8.B-\L
16B-\Jk
12B-\L
12B-\
12A-\J
8.B-\L
16A-\Jk
=9
(4..B-^\
16A-\)
16A-\LL
16A-\JJ
8r
=10||
*M2/4
8.c\L
16c\Jk
12c\L
12B-\
12B-\J
=11||
*M3/4
8.B-\L
16B-\Jk
12B-\L
12B-\
12B-\J
8.B-\L
16A-\Jk
=12||
*M2/4
8.B-\L
16B-\Jk
8A-\
8r
=13
16B-\LK
8.B-\J
8.B-\L
16B-\Jk
=14
8B-\L
8B-\J
8A-\
16r
16B-\
=15
16B-\LK
8.B-\J
4B-\
=16
2B-\
==
*-
